X:713
T:Reel 713
M:4/4
K:Dmaj
L:1/8
d>D (3DDD F>A (3ABc |dfaf gfec|d>D (3DDD FAdc|BGEF GABc|d>D (3DDD F>A (3ABc |dfaf gfeg|fdec dABG|FGEF D2|FA|dced cAAB|=cded fdec|dfec dAFG|Adcd cAA2|defd cdec|dfed cABc|dAFA dcAG|FGEF D2|
